X:35
T:Esteledik a faluba'
M:4/4
L:1/4
K:F
D/E/F/G/ A/d/A/d/ | cAAG | D2 Dz |
d/A/d/e/ f/g/f/e/ | dced | A2 Az |
d/A/d/e/ f/g/f/e/ | dced | A2 G2 |
D/E/F/G/ A/d/A/d/ | cAAG | D2 Dz |

